apps/www/public/images/logos/publicity/mdn.svg

<svg width="118" height="60" viewBox="0 0 118 60" fill="none" xmlns="http://www.w3.org/2000/svg">
<path d="M21.0013 16.0044L13.274 40.8884H10.1129L17.8131 16.0044H21.0013ZM23.8112 16.0044V40.8884H21.0013V16.0044H23.8112ZM34.6997 16.0044L26.9994 40.8884H23.8383L31.5385 16.0044H34.6997ZM37.5096 16.0044V40.8884H34.6997V16.0044H37.5096Z" fill="#7E7E7E"/>
<path d="M63.0421 35.7279H58.4219V34.2419H59.4486V29.973C59.4486 28.9733 59.2595 28.2708 58.8813 27.8385C58.503 27.4062 57.9896 27.2171 57.3412 27.2171C56.4766 27.2171 55.8282 27.5143 55.3959 28.1357C54.9636 28.7571 54.7474 29.3786 54.7204 30V34.2149H56.3415V35.7009H51.7214V34.2149H52.7481V29.973C52.7481 28.9463 52.5589 28.2438 52.1807 27.8385C51.8024 27.4332 51.2891 27.2171 50.6676 27.2171C49.803 27.2171 49.1816 27.5143 48.7223 28.1087C48.29 28.7031 48.0739 29.3245 48.0468 29.973V34.2419H49.9111V35.7279H44.4534V34.2419H46.0745V27.4062H44.4264V25.8932H48.0468V27.6224C48.3711 27.055 48.7763 26.5957 49.3167 26.2174C49.8571 25.8662 50.5055 25.677 51.2891 25.677C52.0726 25.677 52.721 25.8662 53.3154 26.2444C53.9099 26.6227 54.3151 27.1901 54.5313 27.9736C54.8285 27.2981 55.2608 26.7578 55.8552 26.3255C56.4496 25.8932 57.1521 25.677 57.9896 25.677C58.9353 25.677 59.7458 25.9742 60.3943 26.5686C61.0427 27.163 61.394 28.0817 61.394 29.3245V34.2419H63.0421V35.7279ZM74.525 35.7279H70.9585V33.7826C70.6343 34.377 70.202 34.8903 69.6346 35.2956C69.0672 35.7279 68.3377 35.9441 67.3921 35.9441C66.0952 35.9441 65.0415 35.5118 64.2579 34.6202C63.4744 33.7556 63.0961 32.5397 63.0961 31.0267C63.0961 29.6758 63.4474 28.4329 64.1769 27.3252C64.8794 26.2174 66.0412 25.65 67.6353 25.65C69.2293 25.65 70.2831 26.2444 70.9585 27.4062V22.0836H68.6349V20.5705H72.9039V34.2419H74.525V35.7279ZM70.9315 31.1888V30C70.9045 29.1894 70.6073 28.514 70.0669 28.0276C69.5266 27.5413 68.8781 27.2711 68.1216 27.2711C67.1489 27.2711 66.4194 27.6224 65.9061 28.3248C65.3927 29.0273 65.1495 29.8919 65.1495 30.9186C65.1495 32.0264 65.4197 32.891 65.9601 33.4854C66.5005 34.0798 67.1759 34.377 67.9595 34.377C68.8241 34.377 69.5266 34.0257 70.0669 33.3503C70.6343 32.6478 70.9045 31.9183 70.9315 31.1888ZM82.3333 35.7279V34.2419H83.9544V29.973C83.9544 28.9733 83.7653 28.2708 83.36 27.8385C82.9818 27.4062 82.4414 27.2171 81.82 27.2171C80.9824 27.2171 80.3069 27.4873 79.8206 28.0276C79.3343 28.568 79.0641 29.2164 79.0371 29.9189V34.2149H80.6582V35.7009H75.4436V34.2149H77.0647V27.4062H75.3896V25.8932H79.0641V27.5683C79.7666 26.3255 80.9013 25.704 82.4954 25.704C83.4681 25.704 84.3057 26.0012 84.9811 26.5957C85.6566 27.1901 85.9808 28.1087 85.9808 29.3515V34.2689H87.6019V35.7279H82.3333Z" fill="#7E7E7E"/>
<path d="M89.0882 41.618H107.191V43.9956H89.0882V41.618Z" fill="#7E7E7E"/>
</svg>

<svg xmlns="http://www.w3.org/2000/svg" width="118" height="60" fill="none" viewBox="0 0 118 60"><path fill="#7e7e7e" d="m21.001 16.004-7.727 24.884h-3.161l7.7-24.884zm2.81 0v24.884h-2.81V16.004zm10.889 0L27 40.888h-3.162l7.7-24.884zm2.81 0v24.884H34.7V16.004zM63.042 35.728h-4.62v-1.486h1.027v-4.269c0-1-.19-1.702-.568-2.134-.378-.433-.891-.622-1.54-.622-.864 0-1.513.297-1.945.919-.432.621-.649 1.243-.676 1.864v4.215h1.622V35.7h-4.62v-1.486h1.026v-4.242c0-1.027-.19-1.73-.567-2.134-.379-.406-.892-.622-1.513-.622-.865 0-1.486.297-1.946.892-.432.594-.648 1.215-.675 1.864v4.269h1.864v1.486h-5.458v-1.486h1.621v-6.836h-1.648v-1.513h3.62v1.73a4.2 4.2 0 0 1 1.27-1.406c.541-.35 1.19-.54 1.973-.54s1.432.19 2.026.567c.595.379 1 .946 1.216 1.73a3.95 3.95 0 0 1 1.324-1.648c.595-.433 1.297-.649 2.135-.649.945 0 1.756.297 2.404.892.649.594 1 1.513 1 2.756v4.917h1.648zm11.483 0h-3.567v-1.945a4.44 4.44 0 0 1-1.323 1.513c-.568.432-1.297.648-2.243.648-1.297 0-2.35-.432-3.134-1.324-.784-.864-1.162-2.08-1.162-3.593 0-1.351.351-2.594 1.08-3.702.703-1.108 1.865-1.675 3.46-1.675 1.593 0 2.647.594 3.323 1.756v-5.322h-2.324V20.57h4.269v13.672h1.621zm-3.594-4.54V30c-.026-.81-.324-1.486-.864-1.972a2.83 2.83 0 0 0-1.945-.757c-.973 0-1.703.351-2.216 1.054-.513.702-.757 1.567-.757 2.594 0 1.107.27 1.972.811 2.566.54.595 1.216.892 2 .892.864 0 1.567-.351 2.107-1.027.567-.702.838-1.432.865-2.161m11.402 4.54v-1.486h1.621v-4.269c0-1-.189-1.702-.594-2.134-.378-.433-.919-.622-1.54-.622-.838 0-1.513.27-2 .81a2.96 2.96 0 0 0-.783 1.892v4.296h1.621V35.7h-5.214v-1.486h1.62v-6.809H75.39v-1.513h3.674v1.675c.703-1.242 1.837-1.864 3.431-1.864.973 0 1.81.297 2.486.892.676.594 1 1.513 1 2.756v4.917h1.62v1.459zM89.088 41.618h18.103v2.378H89.088z"/></svg>
